X:1
T:Wesley (Mason), 11.10.11.10
T:Wesley (Mason), 11.10.11.10
T:Lowell Mason, 1830
T:Public Domain Courtesy of the Cyber Hymnal™
C:Lowell Mason, 1830
Z:Public Domain
Z:Courtesy of the Cyber Hymnal™
%%score ( 1 2 ) ( 3 4 )
L:1/8
M:3/4
K:Ab
V:1 treble 
V:2 treble 
V:3 bass 
V:4 bass 
V:1
 [CA]4 [CG][DF] | [CE]2 [CE]2 [CE]2 | [DF]2 [DA]2 [DF]2 | [DF]2 [CE]4 | [Ec]4 [EB][EB] | %5
 [=DA]4 [EG][EG] | [CF]2 [B,E]2 [B,=D]2 | [B,E]6 | [CA]4 [CG][DF] | [CE]2 [CE]2 E2 | %10
 [Ed]2 [Ed]2 [Ec]2 | [Ec]2 [EB]4 | [Ee]4 [Ec][Ed] | [Ee]2 G2 [CA]2 | [Fd]2 [Ec]2 [DB]2 | [CA]6 |] %16
V:2
 x6 | x6 | x6 | x6 | x6 | x6 | x6 | x6 | x6 | x6 | x6 | x6 | x6 | x2 (ED) x2 | x6 | x6 |] %16
V:3
 [A,,E,]4 [A,,E,][A,,A,] | [A,,A,]2 [A,,A,]2 [A,,A,]2 | [D,A,]2 [D,F,]2 [D,A,]2 | %3
 [A,,A,]2 [A,,A,]4 | A,4 [G,B,][G,B,] | [F,B,]4 [E,B,][E,B,] | [A,,A,]2 [B,,G,]2 [B,,F,]2 | %7
 [E,G,]6 | [A,,E,]4 [A,,E,][A,,A,] | [A,,A,]2 [A,,A,]2 [C,A,]2 | [B,,G,]2 [B,,G,]2 [A,,A,]2 | %11
 [E,A,]2 [E,G,]4 | [A,C]4 A,[A,B,] | [A,C]2 [E,B,]2 [F,A,]2 | [D,A,]2 [E,A,]2 [E,G,]2 | [A,,A,]6 |] %16
V:4
 x6 | x6 | x6 | x6 | A,4 x2 | x6 | x6 | x6 | x6 | x6 | x6 | x6 | x4 A, x | x6 | x6 | x6 |] %16

